img/loader.svg

<svg class="loader" width="73" height="73" viewBox="0 0 73 73" fill="none" xmlns="http://www.w3.org/2000/svg">
<style>
.loader__part {
  animation-name: fadeG;
  animation-duration: 1.8s;
  animation-iteration-count: infinite;
  animation-direction: normal;
  animation-timing-function: linear;
  fill: #ab780a;
}

#part-1 {
  animation-delay: -1.65s;
}

#part-2 {
  animation-delay: -1.5s;
}

#part-3 {
  animation-delay: -1.35s;
}

#part-4 {
  animation-delay: -1.2s;
}

#part-5 {
  animation-delay: -1.05s;
}

#part-6 {
  animation-delay: -0.9s;
}

#part-7 {
  animation-delay: -0.75s;
}

#part-8 {
  animation-delay: -0.6s;
}

#part-9 {
  animation-delay: -0.45s;
}

#part-10 {
  animation-delay: -0.3s;
}

#part-11 {
  animation-delay: -0.15s;
}

<!-- #part-12 {
  animation-delay: -0.15s;
} -->


@keyframes fadeG {
  0% {
    fill: #ab780a;
  }

  100% {
    fill: #d7b671;
  }
}

</style>
      <path class="loader__part" id="part-1"
        d="M36.5 13.5403C34.4984 13.5403 32.9678 12.0097 32.9678 10.0081V3.53226C32.9678 1.53065 34.4984 0 36.5 0C38.5016 0 40.0323 1.53065 40.0323 3.53226V10.0081C40.0323 11.8919 38.5016 13.5403 36.5 13.5403Z" />
      <path class="loader__part" id="part-7"
        d="M36.5 73C34.4984 73 32.9678 71.4693 32.9678 69.4677V62.9919C32.9678 60.9903 34.4984 59.4597 36.5 59.4597C38.5016 59.4597 40.0323 60.9903 40.0323 62.9919V69.4677C40.0323 71.4693 38.5016 73 36.5 73Z" />
      <path class="loader__part" id="part-12"
        d="M23.1952 17.0726C22.0178 17.0726 20.8404 16.4839 20.1339 15.3065L16.9549 9.77262C16.013 8.12424 16.6017 5.88714 18.2501 4.9452C19.8985 4.00327 22.1356 4.59198 23.0775 6.24037L26.2565 11.7742C27.1985 13.4226 26.6097 15.6597 24.9614 16.6017C24.4904 16.8371 23.7839 17.0726 23.1952 17.0726Z" />
      <path class="loader__part" id="part-6"
        d="M52.9838 68.5258C51.8064 68.5258 50.629 67.9371 49.9225 66.7597L46.7435 61.2258C45.8015 59.5774 46.3903 57.3403 48.0386 56.3984C49.687 55.4565 51.9241 56.0452 52.8661 57.6935L56.0451 63.2274C56.987 64.8758 56.3983 67.1129 54.7499 68.0548C54.1612 68.4081 53.5725 68.5258 52.9838 68.5258Z" />
      <path class="loader__part" id="part-11"
        d="M13.5403 26.7274C12.9516 26.7274 12.3629 26.6097 11.7742 26.2565L6.2403 23.0774C4.59192 22.1355 4.00321 19.8984 4.94514 18.25C5.88708 16.6016 8.12417 16.0129 9.77256 16.9548L15.3064 20.1339C16.9548 21.0758 17.5435 23.3129 16.6016 24.9613C15.8951 26.1387 14.7177 26.7274 13.5403 26.7274Z" />
      <path class="loader__part" id="part-5"
        d="M65.1114 56.5161C64.5227 56.5161 63.934 56.3984 63.3453 56.0451L57.6937 52.8661C56.0453 51.9242 55.4566 49.6871 56.3985 48.0387C57.3404 46.3903 59.5775 45.8016 61.2259 46.7435L66.7598 49.9226C68.4082 50.8645 68.9969 53.1016 68.0549 54.75C67.4662 55.9274 66.2888 56.5161 65.1114 56.5161Z" />
      <path class="loader__part" id="part-10"
        d="M10.0081 40.0322H3.53226C1.53065 40.0322 0 38.5016 0 36.5C0 34.4984 1.53065 32.9677 3.53226 32.9677H10.0081C12.0097 32.9677 13.5403 34.4984 13.5403 36.5C13.5403 38.5016 11.8919 40.0322 10.0081 40.0322Z" />
      <path class="loader__part" id="part-4"
        d="M69.4678 40.0322H62.992C60.9904 40.0322 59.4597 38.5016 59.4597 36.5C59.4597 34.4984 60.9904 32.9677 62.992 32.9677H69.4678C71.4694 32.9677 73 34.4984 73 36.5C73 38.5016 71.4694 40.0322 69.4678 40.0322Z" />
      <path class="loader__part" id="part-9"
        d="M7.88876 56.5161C6.71134 56.5161 5.53392 55.9274 4.82747 54.75C3.88553 53.1016 4.47424 50.8645 6.12263 49.9226L11.6565 46.7435C13.3049 45.8016 15.542 46.3903 16.4839 48.0387C17.4259 49.6871 16.8371 51.9242 15.1888 52.8661L9.65489 56.0451C9.18392 56.3984 8.59521 56.5161 7.88876 56.5161Z" />
      <path class="loader__part" id="part-3"
        d="M59.4598 26.7274C58.2824 26.7274 57.105 26.1387 56.3985 24.9613C55.4566 23.3129 56.0453 21.0758 57.6937 20.1339L63.2275 16.9548C64.8759 16.0129 67.113 16.6016 68.0549 18.25C68.9969 19.8984 68.4082 22.1355 66.7598 23.0774L61.2259 26.2565C60.6372 26.6097 60.0485 26.7274 59.4598 26.7274Z" />
      <path class="loader__part" id="part-8"
        d="M20.0162 68.5258C19.4275 68.5258 18.8388 68.4081 18.2501 68.0548C16.6017 67.1129 16.013 64.8758 16.9549 63.2274L20.1339 57.6935C21.0759 56.0452 23.313 55.4565 24.9614 56.3984C26.6097 57.3403 27.1985 59.5774 26.2565 61.2258L23.0775 66.7597C22.371 67.9371 21.1936 68.5258 20.0162 68.5258Z" />
      <path class="loader__part" id="part-2"
        d="M49.8048 17.0726C49.2161 17.0726 48.6273 16.9549 48.0386 16.6017C46.3903 15.6597 45.8015 13.4226 46.7435 11.7742L49.9225 6.24037C50.8644 4.59198 53.1015 4.00327 54.7499 4.9452C56.3983 5.88714 56.987 8.12424 56.0451 9.77262L52.8661 15.3065C52.1596 16.3662 50.9822 17.0726 49.8048 17.0726Z" />
    </svg>

<svg class="loader" width="73" height="73" fill="none" xmlns="http://www.w3.org/2000/svg"><style>@keyframes fadeG{0%{fill:#ab780a}}.loader__part{animation-name:fadeG;animation-duration:1.8s;animation-iteration-count:infinite;animation-direction:normal;animation-timing-function:linear;fill:#ab780a}</style><path class="loader__part" d="M36.5 13.54c-2.002 0-3.532-1.53-3.532-3.532V3.532C32.968 1.531 34.498 0 36.5 0s3.532 1.53 3.532 3.532v6.476c0 1.884-1.53 3.532-3.532 3.532z" style="animation-delay:-1.65s"/><path class="loader__part" d="M36.5 73c-2.002 0-3.532-1.53-3.532-3.532v-6.476c0-2.002 1.53-3.532 3.532-3.532s3.532 1.53 3.532 3.532v6.476c0 2.001-1.53 3.532-3.532 3.532z" style="animation-delay:-.75s"/><path class="loader__part" id="part-12" d="M23.195 17.073c-1.177 0-2.355-.59-3.061-1.767l-3.18-5.533c-.941-1.649-.352-3.886 1.296-4.828 1.648-.942 3.886-.353 4.828 1.295l3.178 5.534c.942 1.649.354 3.886-1.295 4.828-.47.235-1.177.47-1.766.47z"/><path class="loader__part" d="M52.984 68.526c-1.178 0-2.355-.589-3.062-1.766l-3.178-5.534c-.943-1.649-.354-3.886 1.295-4.828 1.648-.942 3.885-.353 4.827 1.295l3.18 5.534c.941 1.649.352 3.886-1.296 4.828a3.322 3.322 0 01-1.766.47z" style="animation-delay:-.9s"/><path class="loader__part" d="M13.54 26.727a3.323 3.323 0 01-1.766-.47l-5.534-3.18c-1.648-.942-2.237-3.179-1.295-4.827.942-1.648 3.18-2.237 4.828-1.295l5.533 3.179c1.649.942 2.238 3.179 1.296 4.827-.707 1.178-1.884 1.766-3.062 1.766z" style="animation-delay:-.15s"/><path class="loader__part" d="M65.111 56.516a3.322 3.322 0 01-1.766-.47l-5.651-3.18c-1.649-.942-2.237-3.179-1.296-4.827.942-1.649 3.18-2.237 4.828-1.296l5.534 3.18c1.648.941 2.237 3.179 1.295 4.827-.589 1.177-1.766 1.766-2.944 1.766z" style="animation-delay:-1.05s"/><path class="loader__part" d="M10.008 40.032H3.532C1.531 40.032 0 38.502 0 36.5s1.53-3.532 3.532-3.532h6.476c2.002 0 3.532 1.53 3.532 3.532s-1.648 3.532-3.532 3.532z" style="animation-delay:-.3s"/><path class="loader__part" d="M69.468 40.032h-6.476c-2.002 0-3.532-1.53-3.532-3.532s1.53-3.532 3.532-3.532h6.476c2.001 0 3.532 1.53 3.532 3.532s-1.53 3.532-3.532 3.532z" style="animation-delay:-1.2s"/><path class="loader__part" d="M7.889 56.516c-1.178 0-2.355-.589-3.062-1.766-.941-1.648-.353-3.886 1.296-4.827l5.533-3.18c1.649-.941 3.886-.353 4.828 1.296.942 1.648.353 3.885-1.295 4.827l-5.534 3.18c-.471.352-1.06.47-1.766.47z" style="animation-delay:-.45s"/><path class="loader__part" d="M59.46 26.727c-1.178 0-2.355-.588-3.062-1.766-.941-1.648-.353-3.885 1.296-4.827l5.533-3.18c1.649-.941 3.886-.352 4.828 1.296.942 1.648.353 3.886-1.295 4.827l-5.534 3.18a3.323 3.323 0 01-1.766.47z" style="animation-delay:-1.35s"/><path class="loader__part" d="M20.016 68.526a3.322 3.322 0 01-1.766-.471c-1.648-.942-2.237-3.18-1.295-4.828l3.179-5.533c.942-1.649 3.179-2.238 4.827-1.296 1.649.942 2.238 3.18 1.296 4.828l-3.18 5.534c-.706 1.177-1.883 1.766-3.06 1.766z" style="animation-delay:-.6s"/><path class="loader__part" d="M49.805 17.073a3.323 3.323 0 01-1.766-.471c-1.649-.942-2.238-3.18-1.296-4.828l3.18-5.534c.941-1.648 3.178-2.237 4.827-1.295 1.648.942 2.237 3.18 1.295 4.828l-3.179 5.534c-.706 1.06-1.884 1.766-3.061 1.766z" style="animation-delay:-1.5s"/></svg>
